icons/Others/bell-fill.svg

<svg viewBox="0 0 24 24" xmlns="http://www.w3.org/2000/svg"><path d="M13.4142 10.5856L13.8936 11.0717L14.3585 11.5565L14.8177 12.049C18.2758 15.8129 20.2896 19.2665 19.4246 20.1316C19.0242 20.532 18.069 20.3155 16.7851 19.6244C13.5839 21.638 9.38982 21.4407 6.38249 19.0325L9.36197 16.0536C10.0289 16.2312 10.7697 16.0585 11.2929 15.5354C12.0739 14.7543 12.0739 13.488 11.2929 12.7069C10.5118 11.9259 9.24551 11.9259 8.46447 12.7069C7.98129 13.1901 7.79702 13.859 7.91165 14.4838L7.94653 14.639L4.968 17.6181C2.55913 14.6107 2.36164 10.4162 4.37553 7.21411C3.68433 5.93082 3.46783 4.97564 3.86827 4.5752C4.84458 3.59889 9.11845 6.28985 13.4142 10.5856ZM19.7782 4.22165C20.5592 5.0027 20.5592 6.26903 19.7782 7.05008C19.7254 7.10285 19.6704 7.15205 19.6135 7.19768C21.2304 9.7539 21.4333 12.9495 20.2214 15.6675C19.0324 13.7133 17.1513 11.4943 14.8284 9.1714L14.2905 8.6396C12.1634 6.56127 10.1352 4.87547 8.3327 3.77903C11.0504 2.56667 14.2459 2.76941 16.804 4.38688C16.8478 4.3294 16.897 4.27442 16.9497 4.22165C17.7308 3.4406 18.9971 3.4406 19.7782 4.22165Z"/></svg>

<svg xmlns="http://www.w3.org/2000/svg" viewBox="0 0 24 24">
    <g>
        <path fill="none" d="M0 0h24v24H0z"/>
        <path d="M13.414 10.586l.48.486.465.485.459.492c3.458 3.764 5.472 7.218 4.607 8.083-.4.4-1.356.184-2.64-.507a9.006 9.006 0 0 1-10.403-.592l2.98-2.98a2 2 0 1 0-1.45-1.569l.035.155-2.979 2.98a9.007 9.007 0 0 1-.592-10.405c-.692-1.283-.908-2.238-.508-2.639.977-.976 5.25 1.715 9.546 6.01zm6.364-6.364a2 2 0 0 1-.164 2.976 9.015 9.015 0 0 1 .607 8.47c-1.189-1.954-3.07-4.174-5.393-6.496l-.537-.532c-2.128-2.079-4.156-3.764-5.958-4.86a9.015 9.015 0 0 1 8.471.607 2 2 0 0 1 2.974-.165z"/>
    </g>
</svg>
